build/img/twitter.svg

<svg width="24" height="24" fill="none" xmlns="http://www.w3.org/2000/svg">
  <path d="M23.0768 5.1309c-.8239.36138-1.7017.60092-2.6169.71722.9415-.56215 1.6601-1.44552 1.9979-2.51028-.8778.52338-1.847.89307-2.8799 1.09938C18.7443 3.54969 17.5564 3 16.2604 3c-2.5145 0-4.5387 2.0409-4.5387 4.54287 0 .36.0304.70615.1052 1.03568-3.77582-.18415-7.11686-1.99382-9.3613-4.75056-.39184.67984-.62168 1.45798-.62168 2.29567 0 1.5729.80999 2.9672 2.01736 3.77442-.72969-.01385-1.44552-.22569-2.05198-.55938v.04985c0 2.20705 1.57429 4.04025 3.63873 4.46255-.36969.1011-.77261.1495-1.19076.1495-.29076 0-.5843-.0166-.85983-.0775.58845 1.7986 2.25828 3.1209 4.2438 3.1638-1.54522 1.2088-3.50719 1.9371-5.63117 1.9371-.37246 0-.72969-.0166-1.086913-.0623C2.93498 20.259 5.31926 20.9998 7.89047 20.9998c8.35743 0 12.92663-6.923 12.92663-12.92386 0-.20076-.0069-.39461-.0166-.58707.9014-.63968 1.6587-1.4386 2.2763-2.35797z" fill="#000"/>
</svg>

<svg width="24" height="24" viewBox="0 0 24 24" fill="none" xmlns="http://www.w3.org/2000/svg">
<path d="M23.0768 5.1309C22.2529 5.49228 21.3751 5.73182 20.4599 5.84812C21.4014 5.28597 22.12 4.4026 22.4578 3.33784C21.58 3.86122 20.6108 4.23091 19.5779 4.43722C18.7443 3.54969 17.5564 3 16.2604 3C13.7459 3 11.7217 5.0409 11.7217 7.54287C11.7217 7.90287 11.7521 8.24902 11.8269 8.57855C8.05108 8.3944 4.71004 6.58473 2.4656 3.82799C2.07376 4.50783 1.84392 5.28597 1.84392 6.12366C1.84392 7.69656 2.65391 9.09086 3.86128 9.89808C3.13159 9.88423 2.41576 9.67239 1.8093 9.3387C1.8093 9.35255 1.8093 9.37055 1.8093 9.38855C1.8093 11.5956 3.38359 13.4288 5.44803 13.8511C5.07834 13.9522 4.67542 14.0006 4.25727 14.0006C3.96651 14.0006 3.67297 13.984 3.39744 13.9231C3.98589 15.7217 5.65572 17.044 7.64124 17.0869C6.09602 18.2957 4.13405 19.024 2.01007 19.024C1.63761 19.024 1.28038 19.0074 0.923157 18.9617C2.93498 20.259 5.31926 20.9998 7.89047 20.9998C16.2479 20.9998 20.8171 14.0768 20.8171 8.07594C20.8171 7.87518 20.8102 7.68133 20.8005 7.48887C21.7019 6.84919 22.4592 6.05027 23.0768 5.1309Z" fill="black"/>
</svg>
